X:1
T:049 - Tudo Fez Jesus
T:Letra: Richard Holden (1828-1886)
T:Música: Stephen Glover
M:4/4
L:1/4
K:F
V:1
"F"A>A "C7"c>c | "Dm"F"C"G"F"A"C"G | "C7"B"F"A "Bb"d"C"c | "Bb"B"F"A "C"G2 | "F"A>A "C7"c>c | "Dm"F"C"G"F"A"C"G | "C"Gc"G"=B"Am"c | "Dm7"c"G"=B"C"c2 | "C7"c>e "F"f>c | "C7"B"F"AA"C"G | "C7"c>e "F"f>c | "C7"B"F"A"C"G2 | "F"A>A "C7"c>c | "Dm"F"C"G"F"A"C"G | "C7"B"F"A"Bb"d"Gm"B | "F/C"A"C"G"F"F2 |]
w: 1.~Cris-to tu-do fez com-ple-to, Na-da por fa-zer dei-xou; Vi-da do mais do-cea-fe-to, E-le pa-ra nós com-prou.  Seu, o fei-to; nos-so,o go-zo; Nos-sa,a vi-da; su-a,a cruz; Seu, o cá-li-cea-mar-go-so; Nos-sa,a di-ta que pro-duz.
W: 
W:
W: Cristo tudo fez completo,
W: Nada por fazer deixou;
W: Vida do mais doce afeto,
W: Ele para nós comprou.
W: 
W:
W:
W: Seu, o feito; nosso, o gozo;
W: Nossa, a vida; sua, a cruz;
W: Seu, o cálice amargoso;
W: Nossa, a dita que produz.
W:         
W: 			
W:           





